X: 458
T: Captain And His Whiskers, The
B: jims roots
M:4/4
L:1/8
R: reel
Q: 1/4=100
K:Gmaj
V:1 
GA|"G"B2 dB AG2 A|BedB G2 AB|"C"c2 cd ecAG|"D"FAAB A2 GA|
"G"B2 dB AG2 A|BddB G2 AB|"C"c2 cd ecAF|"G"G2 G2 G2:|
ef| "G"gfga g2 fe|dBGA B2AB|"C"c2 cd ecAG|"D"FAAB A2 ef|
"G"gfga g2 fe|dBGA B2AB |"C"c2 cd ecAF|"G"G2 G2G2:|
% abcbook-tune_id 6298c245558e726bdd48588f


% abcbook-boost 0
% abcbook-tablature 
% abcbook-transpose 
% abcbook-lastupdated 1654178373645
% abcbook-soundfonts 
% abcbook-repeats 1


